!!!COM: Robert Franz
!!!CNT: Deutscher
!!!TXO: Deutsche 
!!!OTL: Die blauen Fruhlingsaugen
!!!OPS: Op 20
!!!ONM: No. 1
!!!ONB: Original key: F# Major
!!!LYR: H. Heine
!!!ENC: Brian Bice
!!!YOR: Vocal Album, G. Schirmer, Inc., 1907
!!!ODT: 1865/
!!NB: Vocal melody and text only encoded.
**kern	**silbe
*clefG2	*
*k[b-e-a-]	*
*M6/8	*
=0	=0
4.r	.
4r	.
{8B-	{Die
=1	=1
4e-	blau-
8g	-en
4cc	Fru2h-
8b-	-lings-
=2	=2
(4a-	-au-
8g)	|
4f}	-gen}
{8a-	{schau'n
=3	=3
(8g	aus
8a-)	|
8b-	dem
4e-	Gras
8f	her-
=4	=4
[4.g	-vor;
4g]}	|}
8r	.
=5	=5
{8c	{das
8f	sind
8a-	die
4dd	lie-
8cc	-ben
=6	=6
(4b-	Veil-
8a-)	|
4g}	-chen,}
{8f	{die
=7	=7
8e-	ich
8g	mir
8c	zum
8f	Strauss
8b-	|
8an	er-
=8	=8
[4.b-	-kor
4b-]}	|}
8r	.
=9	=9
{8B-	{Ich
8e-	pflu2c-
8g	-ke
4cc	sie
8b-	und
=10	=10
(4a-	den-
8g)	|
4f}	-ke,}
8r	.
=11	=11
{8g	{und
8a-	die
8b-	Ge-
4e-	-dan-
8f	-ken
=12	=12
[4.g	all,
4g]}	|}
8r	.
=13	=13
{8c	{die
8f	mir
8a-	im
4d	Her-
8c	-zen
=14	=14
(4b-	seuf-
8a-)	|
4g}	-zen,}
{8f	{singt
=15	=15
(8e-	laut
8g)	|
8cc	die
(8f	Nach-
8b-)	|
8an	-ti-
=16	=16
[4.b-	-gall.
4b-]}	|}
8r	.
=17	=17
{8B-	{Ja,
8e-	was
8g	ich
4cc	den-
8b-	-ke
=18	=18
(4a-	singt
8g)	|
4f}	sie}
{8a-	{und
=19	=19
(8g	schmet-
8a-)	|
8b-	-tert,
4e-	dass
8f	es
=20	=20
[4.g	schallt;
4g]}	|}
8r	.
=21	=21
{8c	{mein
8f	za2rt-
8a-	-li-
4dd	-ches
8cc	Ge-
=22	=22
(4b-	heim-
8a-)	|
4g}	niss}
{8b-	{weiss
=23	=23
4e-	schon
8g	der
4cc	gan-
8b-	-ze
=24	=24
[4.a-	Wald,
4a-]}	|}
{8cc	{weiss
=25	=25
(8ff	schon
8ee-)	|
8dd	der
4ee-	gan-
8b-	-ze
=26	=26
[4.g	Wald.
4g]}	|}
8r	.
*-	*-
